images/celsius.svg

<svg height="250" viewBox="0 0 250 250" width="250" xmlns="http://www.w3.org/2000/svg"><path d="m250 125c0 69.035156-55.964844 125-125 125s-125-55.964844-125-125 55.964844-125 125-125 125 55.964844 125 125zm0 0" fill="#4156a6"/><path d="m125 200c-41.355469 0-75-33.644531-75-75s33.644531-75 75-75 75 33.644531 75 75-33.644531 75-75 75m0-143.128906c-37.566406 0-68.128906 30.5625-68.128906 68.128906s30.5625 68.128906 68.128906 68.128906 68.128906-30.5625 68.128906-68.128906-30.5625-68.128906-68.128906-68.128906m29.59375 100.800781c1.273438-1.296875 1.316406-3.359375.097656-4.707031-1.214844-1.347656-3.273437-1.515625-4.691406-.386719-14.878906 13.480469-37.769531 12.730469-51.730469-1.699219-13.960937-14.429687-13.960937-37.328125 0-51.757812 13.960938-14.429688 36.851563-15.179688 51.730469-1.699219.902344.863281 2.203125 1.167969 3.398438.796875 1.191406-.371094 2.089843-1.363281 2.34375-2.585938.25-1.226562-.183594-2.488281-1.132813-3.304687-17.625-15.96875-44.742187-15.078125-61.28125 2.015625-16.539063 17.089844-16.539063 44.222656 0 61.3125 16.539063 17.09375 43.65625 17.984375 61.28125 2.015625m8.5-56.765625c-3.554687 0-6.433594 2.878906-6.433594 6.433594 0 3.554687 2.878907 6.433594 6.433594 6.433594s6.4375-2.878907 6.4375-6.433594c-.011719-3.550782-2.886719-6.425782-6.4375-6.433594m2.890625 6.433594c.003906 1.160156-.695312 2.210937-1.769531 2.65625-1.074219.445312-2.308594.199218-3.128907-.621094-.824218-.820312-1.066406-2.058594-.621093-3.128906.445312-1.074219 1.492187-1.773438 2.65625-1.769532 1.578125 0 2.859375 1.28125 2.863281 2.863282" fill="#fff" fill-rule="evenodd"/></svg>

<svg xmlns="http://www.w3.org/2000/svg" xmlns:xlink="http://www.w3.org/1999/xlink" width="250px" height="250px" viewBox="0 0 250 250" version="1.1">
<g id="surface1">
<path style=" stroke:none;fill-rule:nonzero;fill:rgb(25.490198%,33.725491%,65.098041%);fill-opacity:1;" d="M 250 125 C 250 194.035156 194.035156 250 125 250 C 55.964844 250 0 194.035156 0 125 C 0 55.964844 55.964844 0 125 0 C 194.035156 0 250 55.964844 250 125 Z M 250 125 "/>
<path style=" stroke:none;fill-rule:evenodd;fill:rgb(100%,100%,100%);fill-opacity:1;" d="M 125 200 C 83.644531 200 50 166.355469 50 125 C 50 83.644531 83.644531 50 125 50 C 166.355469 50 200 83.644531 200 125 C 200 166.355469 166.355469 200 125 200 M 125 56.871094 C 87.433594 56.871094 56.871094 87.433594 56.871094 125 C 56.871094 162.566406 87.433594 193.128906 125 193.128906 C 162.566406 193.128906 193.128906 162.566406 193.128906 125 C 193.128906 87.433594 162.566406 56.871094 125 56.871094 M 154.59375 157.671875 C 155.867188 156.375 155.910156 154.3125 154.691406 152.964844 C 153.476562 151.617188 151.417969 151.449219 150 152.578125 C 135.121094 166.058594 112.230469 165.308594 98.269531 150.878906 C 84.308594 136.449219 84.308594 113.550781 98.269531 99.121094 C 112.230469 84.691406 135.121094 83.941406 150 97.421875 C 150.902344 98.285156 152.203125 98.589844 153.398438 98.21875 C 154.589844 97.847656 155.488281 96.855469 155.742188 95.632812 C 155.992188 94.40625 155.558594 93.144531 154.609375 92.328125 C 136.984375 76.359375 109.867188 77.25 93.328125 94.34375 C 76.789062 111.433594 76.789062 138.566406 93.328125 155.65625 C 109.867188 172.75 136.984375 173.640625 154.609375 157.671875 M 163.109375 100.90625 C 159.554688 100.90625 156.675781 103.785156 156.675781 107.339844 C 156.675781 110.894531 159.554688 113.773438 163.109375 113.773438 C 166.664062 113.773438 169.546875 110.894531 169.546875 107.339844 C 169.535156 103.789062 166.660156 100.914062 163.109375 100.90625 M 166 107.339844 C 166.003906 108.5 165.304688 109.550781 164.230469 109.996094 C 163.15625 110.441406 161.921875 110.195312 161.101562 109.375 C 160.277344 108.554688 160.035156 107.316406 160.480469 106.246094 C 160.925781 105.171875 161.972656 104.472656 163.136719 104.476562 C 164.714844 104.476562 165.996094 105.757812 166 107.339844 "/>
</g>
</svg>
